X:1
T:Title
%%score ( 1 2 ) ( 3 4 )
L:1/8
Q:1/4=95
M:6/8
K:D
V:1 treble nm="Grand Piano, Soprano"
V:2 treble 
V:3 bass nm="Choir Pad, Not Now, but By and By"
V:4 bass 
V:1
 [DF]/[EG]/ [FA]2 [FA] [Fd]2 | [Ac] [GB]2 [FA] [DF]2 | [DF] [CE]2 [DF] [CA]2 | %3
w: By~John~Robson~Sweney * * * *|||
 [CG] [DF]2- [DF]2- [DF]/ z/ | [DF]/[EG]/ [FA]2 [FA] [Fd]2 | [Ad][ce][Bd] [GB] [FA]2 | z3 z .d2 | %7
w: ||||
 [D^G] [CA]2- [CA]2- [CA]/ z/ | z .c2 z .A2 | [Gc][Fd][DF] [DB] [DA]2 | D =F2 EDC | %11
w: ||||
 D [CA]2- [CA]2- [CA]/ z/ | [EG] [DF]2 [GB] [FA]2 | [Fd] [Ge]2 [Gd] [GB]2 | z .A2 z .A2 | %15
w: ||||
 [CE] D2- D2- D/ z/ | [Fd] [Ec]2- [Ec]2- [Ec]/ z/ | [GB] [GB]2 [FA] [Fd]2 | D =F2 EDC | %19
w: ||||
 D [CA]2- [CA]2- [CA]/ z/ | [EG] [DF]2 [GB] [FA]2 | [Fd] [Ge]2 [Gd] [GB]2 | [GB] [FA]2 [Fd]cB | %23
w: ||||
 [Gc] [Fd]2- [Fd]3- | [Fd]3 z3 |] %25
w: ||
V:2
 x6 | x6 | x6 | x6 | x6 | x6 | [DF] [CE]2 [Ec]D-[DF] | x6 | AG-[GB] [GA]G-[GB] | x6 | x6 | x6 | %12
 x6 | x6 | [GB]F-[Fd] [DF]C-[CG] | x6 | x6 | x6 | x6 | x6 | x6 | x6 | z3 z G2 | x6 | x6 |] %25
V:3
 [D,A,] [D,D]2 [D,D] [D,A,]2 | [D,D] [D,D]2 [D,D] [D,A,]2 | [D,A,] A,2 [F,A,] [E,A,]2 | %3
 [A,,A,] [D,A,]2- [D,A,]2- [D,A,]/ z/ | [D,A,] [D,D]2 [D,D] [D,A,]2 | [F,D] [G,D]2 [G,D] [D,D]2 | %6
 [D,A,] [E,A,]2 [E,A,]^G,A, | [E,B,] [A,,A,]2- [A,,A,]2- [A,,A,]/ z/ | A,[K:treble]ED [A,C]CD | %9
 [A,E]DA, [D,G,] [D,F,]2 | D, =F,2 E,D,C, | D, [A,,E,]2- [A,,E,]2- [A,,E,]/ z/ | %12
 [A,,A,] [D,A,]2 [D,D] [D,D]2 | [D,=C] [G,B,]2 [G,B,] [G,D]2 | [G,D][A,D]A, [A,,A,] [A,,E,]2 | %15
 [A,,G,] [D,F,]2- [D,F,]2- [D,F,]/ z/ | z3 A, A,2 | [A,C] [D,D]2 [D,D] [D,A,]2 | D, =F,2 E,D,C, | %19
 D, [A,,E,]2- [A,,E,]2- [A,,E,]/ z/ | [A,,A,] [D,A,]2 [D,D] [D,D]2 | [D,=C] [G,B,]2 [G,B,] [G,D]2 | %22
 [G,D] [A,D]2 A, [A,,A,]2 | [A,,A,] [D,A,]2- [D,A,]3- | [D,A,]3 z3 |] %25
V:4
 x6 | x6 | x6 | x6 | x6 | x6 | z3 z E,2 | x6 | z[K:treble] A,2 z A,2 | z D,2 z3 | x6 | x6 | x6 | %13
 x6 | x6 | x6 | x6 | x6 | x6 | x6 | x6 | x6 | x6 | x6 | x6 |] %25

